dist/svgs/core-ui-icons/free/cil-library.svg

<svg xmlns="http://www.w3.org/2000/svg" viewBox="0 0 512 512"><path d="M472 16H168a24 24 0 00-24 24v304a24 24 0 0024 24h304a24 24 0 0024-24V40a24 24 0 00-24-24zm-8 320H176V48h288z"/><path d="M112 400V80H80v328a24 24 0 0024 24h328v-32z"/><path d="M48 464V144H16v328a24 24 0 0024 24h328v-32z"/></svg>

<svg xmlns="http://www.w3.org/2000/svg" viewBox="0 0 512 512">
  <path fill="var(--ci-primary-color, currentColor)" d="M472,16H168a24,24,0,0,0-24,24V344a24,24,0,0,0,24,24H472a24,24,0,0,0,24-24V40A24,24,0,0,0,472,16Zm-8,320H176V48H464Z" class="ci-primary"/>
  <path fill="var(--ci-primary-color, currentColor)" d="M112,400V80H80V408a24,24,0,0,0,24,24H432V400Z" class="ci-primary"/>
  <path fill="var(--ci-primary-color, currentColor)" d="M48,464V144H16V472a24,24,0,0,0,24,24H368V464Z" class="ci-primary"/>
</svg>
